X: 9
T: Gustafs Skoal
M:4/4
L:1/8
S: Viola "Mom" Ruth - Pioneer Western Folk Tunes (1948)
Z:AK/Fiddler's Companion
K:C
c4c4|c6C2||F2F2F3A|GFED DCB,C|G2G2G3E|FGAG F3C|
F2F2F3A|GFED DCB,C|G2G2G3E|FGAG F4||
|:AA/A/ AA ACFA|GG/G/ GG GEFG|AA/A/ AA ACFA| G2E2F3C:|

%%sep 1 1 500
